X:1
T:Title
%%score ( 1 2 ) ( 3 4 )
L:1/8
Q:1/4=110
M:4/4
K:A
V:1 treble nm="Grand Piano, Soprano"
V:2 treble 
V:3 bass nm="Choir Pad, Cyrus, CMD"
V:4 bass 
V:1
 [CE]2 [CE]2 [Ec]2 [CA]2- | [CA][CA][DB][FA] [EG][DF] [CE]2 | [CA]2 [CA]2 [EG]2 [Ec]2 | %3
w: By~T.~R.~Bowden,~1899 * * *|||
 [DB]2 [CA]6 | [CE]2 [CE]2 [Ec]2 [CA]2- | [CA][CA][DB][FA] [EG][DF] [CE]2 | %6
w: |||
 [CA]2 [CA]2 [EG]2 [Ec]2 | [DB]2 [CA]6 | [EA]2 [Gd]2- [Gd][Gd][Gd][Gd] | [Ac][GB] [Ac]6 | %10
w: ||||
 [Ec]2 [^Dc]2 [DB]2 BA | [EG][FA] [GB]6 | [GB]2 [Ac]2 [EB]2 d-[Gd] | [Ac]2 cA [EG][DF] [CE]2 | %14
w: ||||
 [CA]2 [CA]2 [EG]2 [Ec]2 | [DB]2 [CA]6- | [CA]2 z2 z4 |] %17
w: |||
V:2
 x8 | x8 | x8 | x8 | x8 | x8 | x8 | x8 | x8 | x8 | z4 z2 ^D2 | x8 | z4 z2 .F2 | z2 F2 z4 | x8 | %15
 x8 | x8 |] %17
V:3
 z8 | z2 .F,2 z4 | [A,,E,]2 E,2 [E,B,]2 [E,A,]2 | [E,G,]2 [A,,A,]6 | z8 | z2 .F,2 z4 | %6
 [A,,E,]2 E,2 [E,B,]2 [E,A,]2 | [E,G,]2 [A,,A,]6 | [A,C]2 [E,B,]2- [E,B,][E,B,][E,B,][E,B,] | %9
 [E,A,]E, [A,,E,]6 | [A,,A,]2 [B,,F,]2 [B,,F,]2 [B,,F,]2 | [B,,B,]2 [E,B,]6 | %12
 [E,E]2 [A,E]2 [G,E]2 [F,B,]2 | [E,A,]2 [D,A,]2 [D,A,]2 [A,,A,]2 | [A,,E,]2 E,2 [E,B,]2 [E,A,]2 | %15
 [E,G,]2 [A,,A,]6- | [A,,A,]2 z2 z4 |] %17
V:4
 [A,,A,]2 [A,,A,]2 [A,,A,]2 [A,,E,]2- | [A,,E,][A,,E,]D,-[D,A,] [D,A,]2 [A,,A,]2 | x8 | x8 | %4
 [A,,A,]2 [A,,A,]2 [A,,A,]2 [A,,E,]2- | [A,,E,][A,,E,]D,-[D,A,] [D,A,]2 [A,,A,]2 | x8 | x8 | x8 | %9
 x8 | x8 | x8 | x8 | x8 | x8 | x8 | x8 |] %17

